X:2057
T:Carval yn Nollick
C:Traditional carol
O:Isle of Man
Z:Clague collection
B:Kiaull Vannin #57
N:See also Carvalyn Gailckagh, Moore et al., p.7.
N:Final minim added in last bar of each line by C Jerry
M:4/4 
L:1/4 
K:G 
G2 DE|G2 A2|Bc d2|e2 dB|G2 B2|A2-A2|
d2 BA| G>F G2|AB c2|d2 BG|BA GF|G2-G2|| 

